resources/svg/briefcase-alt.svg

<svg xmlns="http://www.w3.org/2000/svg" viewBox="0 0 15 15" fill="currentColor"><path fill-rule="evenodd" clip-rule="evenodd" d="M5 2.5V3H1.5C0.671573 3 0 3.67157 0 4.5V13.5C0 14.3284 0.671573 15 1.5 15H13.5C14.3284 15 15 14.3284 15 13.5V4.5C15 3.67157 14.3284 3 13.5 3H10V2.5C10 1.11929 8.88071 0 7.5 0C6.11929 0 5 1.11929 5 2.5ZM7.5 1C6.67157 1 6 1.67157 6 2.5V3H9V2.5C9 1.67157 8.32843 1 7.5 1ZM0.660889 7.3674C4.52332 10.9327 10.4767 10.9327 14.3392 7.3674L13.6609 6.6326C10.1815 9.84433 4.81854 9.84433 1.33917 6.6326L0.660889 7.3674Z" fill="black"/></svg>

<svg xmlns="http://www.w3.org/2000/svg" viewBox="0 0 15 15" fill="currentColor"><path fill-rule="evenodd" clip-rule="evenodd" d="M5 2.5V3H1.5A1.5 1.5 0 000 4.5v9A1.5 1.5 0 001.5 15h12a1.5 1.5 0 001.5-1.5v-9A1.5 1.5 0 0013.5 3H10v-.5a2.5 2.5 0 00-5 0zM7.5 1A1.5 1.5 0 006 2.5V3h3v-.5A1.5 1.5 0 007.5 1zM.66 7.367a10.083 10.083 0 0013.68 0l-.68-.734a9.083 9.083 0 01-12.32 0l-.68.734z" fill="currentColor"/></svg>
